other/sieben.svg

<?xml version="1.0" encoding="UTF-8" standalone="no"?>
<svg
   xmlns:dc="http://purl.org/dc/elements/1.1/"
   xmlns:cc="http://creativecommons.org/ns#"
   xmlns:rdf="http://www.w3.org/1999/02/22-rdf-syntax-ns#"
   xmlns:svg="http://www.w3.org/2000/svg"
   xmlns="http://www.w3.org/2000/svg"
   xmlns:sodipodi="http://sodipodi.sourceforge.net/DTD/sodipodi-0.dtd"
   xmlns:inkscape="http://www.inkscape.org/namespaces/inkscape"
   width="48"
   height="48"
   viewBox="0 0 48 48"
   version="1.1"
   id="svg4545"
   sodipodi:docname="sieben.svg"
   inkscape:version="0.92.1 r">
  <metadata
     id="metadata4551">
    <rdf:RDF>
      <cc:Work
         rdf:about="">
        <dc:format>image/svg+xml</dc:format>
        <dc:type
           rdf:resource="http://purl.org/dc/dcmitype/StillImage" />
        <dc:title></dc:title>
      </cc:Work>
    </rdf:RDF>
  </metadata>
  <defs
     id="defs4549" />
  <sodipodi:namedview
     pagecolor="#ffffff"
     bordercolor="#666666"
     borderopacity="1"
     objecttolerance="10"
     gridtolerance="10"
     guidetolerance="10"
     inkscape:pageopacity="0"
     inkscape:pageshadow="2"
     inkscape:window-width="640"
     inkscape:window-height="480"
     id="namedview4547"
     showgrid="false"
     inkscape:pagecheckerboard="true"
     inkscape:showpageshadow="false"
     inkscape:object-paths="true"
     inkscape:snap-intersection-paths="true"
     inkscape:snap-smooth-nodes="true"
     inkscape:snap-midpoints="true"
     inkscape:snap-bbox="true"
     inkscape:bbox-paths="true"
     inkscape:bbox-nodes="true"
     inkscape:snap-bbox-edge-midpoints="true"
     inkscape:snap-bbox-midpoints="true"
     inkscape:snap-object-midpoints="true"
     inkscape:snap-center="true"
     inkscape:snap-text-baseline="true"
     inkscape:zoom="13.91102"
     inkscape:cx="3.835107"
     inkscape:cy="25.798867"
     inkscape:current-layer="svg4545"
     inkscape:snap-global="false" />
  <path
     style="fill:#ffffff"
     d="M 24 2 A 22 22 0 0 0 2 24 A 22 22 0 0 0 24 46 A 22 22 0 0 0 46 24 A 22 22 0 0 0 24 2 z M 14.523438 12.574219 L 33.476562 12.574219 L 33.476562 16.228516 L 23.671875 37.726562 L 17.353516 37.726562 L 26.636719 17.341797 L 14.523438 17.341797 L 14.523438 12.574219 z "
     id="circle5191" />
</svg>

<?xml version="1.0" encoding="UTF-8"?>
<svg version="1.1" viewBox="0 0 48 48" xmlns="http://www.w3.org/2000/svg">
    <path d="m24 2a22 22 0 0 0 -22 22 22 22 0 0 0 22 22 22 22 0 0 0 22 -22 22 22 0 0 0 -22 -22zm-9.4766 10.574h18.953v3.6543l-9.8047 21.498h-6.3184l9.2832-20.385h-12.113v-4.7676z" fill="#fff"/>
</svg>
